assets/icons/24px/outline/photo-and-video-24px.svg

<svg width="24" height="24" viewBox="0 0 24 24" fill="none" xmlns="http://www.w3.org/2000/svg">
<path d="M3 10.238C3 8.95583 3 8.31475 3.28305 7.84095C3.45274 7.55691 3.69024 7.31941 3.97428 7.14972C4.44809 6.86667 5.08916 6.86667 6.37131 6.86667H7.00955C7.08973 6.86667 7.12982 6.86667 7.1677 6.86523C7.77187 6.84232 8.33324 6.54733 8.69482 6.06276C8.7175 6.03237 8.74024 5.99936 8.78571 5.93333V5.93333C8.83119 5.86731 8.85393 5.83429 8.87661 5.80391C9.23819 5.31934 9.79956 5.02435 10.4037 5.00144C10.4416 5 10.4817 5 10.5619 5H13.4381C13.5183 5 13.5584 5 13.5963 5.00144C14.2004 5.02435 14.7618 5.31934 15.1234 5.80391C15.1461 5.83429 15.1688 5.86731 15.2143 5.93333V5.93333C15.2598 5.99936 15.2825 6.03237 15.3052 6.06276C15.6668 6.54733 16.2281 6.84232 16.8323 6.86523C16.8702 6.86667 16.9103 6.86667 16.9904 6.86667H17.6287C18.9108 6.86667 19.5519 6.86667 20.0257 7.14972C20.3098 7.31941 20.5473 7.55691 20.7169 7.84095C21 8.31475 21 8.95583 21 10.238V15C21 16.8856 21 17.8284 20.4142 18.4142C19.8284 19 18.8856 19 17 19H7C5.11438 19 4.17157 19 3.58579 18.4142C3 17.8284 3 16.8856 3 15V10.238Z" stroke="white" stroke-width="2" stroke-linecap="round"/>
<path d="M15.1428 12.5714C15.1428 14.3072 13.7357 15.7143 12 15.7143C10.2642 15.7143 8.85712 14.3072 8.85712 12.5714C8.85712 10.8357 10.2642 9.42857 12 9.42857C13.7357 9.42857 15.1428 10.8357 15.1428 12.5714Z" stroke="white" stroke-width="2" stroke-linecap="round"/>
<path d="M16.5714 10C16.5714 9.68441 16.8272 9.42857 17.1428 9.42857V9.42857C17.4584 9.42857 17.7143 9.68441 17.7143 10V10C17.7143 10.3156 17.4584 10.5714 17.1428 10.5714V10.5714C16.8272 10.5714 16.5714 10.3156 16.5714 10V10Z" fill="white"/>
</svg>

<svg width="24" height="24" fill="none" xmlns="http://www.w3.org/2000/svg"><path d="M3 10.238c0-1.282 0-1.923.283-2.397a2 2 0 0 1 .691-.691c.474-.283 1.115-.283 2.397-.283h.639c.08 0 .12 0 .158-.002a2 2 0 0 0 1.618-.932l.09-.13a2 2 0 0 1 1.528-.802L10.562 5h2.876l.158.001a2 2 0 0 1 1.527.803c.023.03.046.063.091.13l.091.129a2 2 0 0 0 1.685.804h.639c1.282 0 1.923 0 2.397.283.284.17.521.407.69.691.284.474.284 1.115.284 2.397V15c0 1.886 0 2.828-.586 3.414C19.828 19 18.886 19 17 19H7c-1.886 0-2.828 0-3.414-.586C3 17.828 3 16.886 3 15v-4.762z" stroke="#fff" stroke-width="2" stroke-linecap="round"/><path d="M15.143 12.571a3.143 3.143 0 1 1-6.286 0 3.143 3.143 0 0 1 6.286 0z" stroke="#fff" stroke-width="2" stroke-linecap="round"/><path d="M16.571 10a.571.571 0 1 1 1.143 0 .571.571 0 1 1-1.143 0z" fill="#fff"/></svg>
